icon-themes/breeze_svg/cmd/lc_polygon_diagonal_unfilled.svg

<?xml version="1.0" encoding="UTF-8" standalone="no"?>
<!-- Created with Inkscape (http://www.inkscape.org/) -->

<svg
   xmlns:dc="http://purl.org/dc/elements/1.1/"
   xmlns:cc="http://creativecommons.org/ns#"
   xmlns:rdf="http://www.w3.org/1999/02/22-rdf-syntax-ns#"
   xmlns:svg="http://www.w3.org/2000/svg"
   xmlns="http://www.w3.org/2000/svg"
   xmlns:sodipodi="http://sodipodi.sourceforge.net/DTD/sodipodi-0.dtd"
   xmlns:inkscape="http://www.inkscape.org/namespaces/inkscape"
   width="24"
   height="24"
   id="svg2"
   version="1.1"
   inkscape:version="0.48.4 r9939"
   viewBox="0 0 24 24"
   sodipodi:docname="lc_polygon_diagonal.svg">
  <defs
     id="defs4">
    <inkscape:perspective
       id="perspective4090"
       inkscape:persp3d-origin="12 : 8 : 1"
       inkscape:vp_z="24 : 12 : 1"
       inkscape:vp_y="0 : 1000 : 0"
       inkscape:vp_x="0 : 12 : 1"
       sodipodi:type="inkscape:persp3d" />
  </defs>
  <sodipodi:namedview
     id="base"
     pagecolor="#ffffff"
     bordercolor="#666666"
     borderopacity="1.0"
     inkscape:pageopacity="0.0"
     inkscape:pageshadow="2"
     inkscape:zoom="25.15656"
     inkscape:cx="14.480547"
     inkscape:cy="15.114787"
     inkscape:document-units="px"
     inkscape:current-layer="layer1"
     showgrid="true"
     inkscape:showpageshadow="false"
     units="px"
     inkscape:window-width="1195"
     inkscape:window-height="1053"
     inkscape:window-x="56"
     inkscape:window-y="0"
     inkscape:window-maximized="0"
     showguides="true"
     fit-margin-top="0"
     fit-margin-left="0"
     fit-margin-right="0"
     fit-margin-bottom="0"
     inkscape:snap-bbox="true">
    <inkscape:grid
       type="xygrid"
       id="grid4120"
       originx="1px"
       originy="0.99998262px" />
    <sodipodi:guide
       position="3,21"
       orientation="18,0"
       id="guide4126" />
    <sodipodi:guide
       position="3,3"
       orientation="0,18"
       id="guide4128" />
    <sodipodi:guide
       position="21,3"
       orientation="-18,0"
       id="guide4130" />
    <sodipodi:guide
       position="21,21"
       orientation="0,-18"
       id="guide4132" />
    <sodipodi:guide
       position="4,20"
       orientation="16,0"
       id="guide4134" />
    <sodipodi:guide
       position="4,4"
       orientation="0,16"
       id="guide4136" />
    <sodipodi:guide
       position="20,4"
       orientation="-16,0"
       id="guide4138" />
    <sodipodi:guide
       position="20,20"
       orientation="0,-16"
       id="guide4140" />
    <sodipodi:guide
       position="20,14"
       orientation="-6,0"
       id="guide4199" />
    <sodipodi:guide
       position="20,20"
       orientation="0,-6.0000172"
       id="guide4201" />
  </sodipodi:namedview>
  <metadata
     id="metadata7">
    <rdf:RDF>
      <cc:Work
         rdf:about="">
        <dc:format>image/svg+xml</dc:format>
        <dc:type
           rdf:resource="http://purl.org/dc/dcmitype/StillImage" />
        <dc:title></dc:title>
      </cc:Work>
    </rdf:RDF>
  </metadata>
  <g
     inkscape:label="Capa 1"
     inkscape:groupmode="layer"
     id="layer1"
     transform="translate(1,-1029.3622)">
    <g
       id="layer1-2"
       inkscape:label="Capa 1"
       transform="translate(0,1.738e-5)">
      <path
         id="rect4603-2"
         transform="translate(-1,1029.3622)"
         d="m 4,4 0,8 0,8 16,0 0,-8 -8,0 0,-8 -8,0 z m 1,1 6,0 0,8 8,0 0,6 -8,0 -6,0 0,-14 z"
         style="opacity:0.98692812;color:#000000;fill:#4d4d4d;fill-opacity:1;fill-rule:nonzero;stroke:none;stroke-width:4;marker:none;visibility:visible;display:inline;overflow:visible;enable-background:accumulate"
         inkscape:connector-curvature="0" />
    </g>
  </g>
</svg>

<svg xmlns="http://www.w3.org/2000/svg" viewBox="0 0 24 24">
 <path 
     style="fill:#4d4d4d" 
     d="M 4 4 L 4 12 L 4 20 L 20 20 L 20 12 L 12 12 L 12 4 L 4 4 z M 5 5 L 11 5 L 11 13 L 19 13 L 19 19 L 11 19 L 5 19 L 5 5 z "
     />
 </svg>
